static/images/icons/next.svg

<?xml version='1.0' encoding='utf-8'?>
<svg version="1.1" xmlns="http://www.w3.org/2000/svg" viewBox="0 0 129 129" xmlns:xlink="http://www.w3.org/1999/xlink" enable-background="new 0 0 129 129">
  <g>
    <path fill="#04a763" d="m40.4,121.3c-0.8,0.8-1.8,1.2-2.9,1.2s-2.1-0.4-2.9-1.2c-1.6-1.6-1.6-4.2 0-5.8l51-51-51-51c-1.6-1.6-1.6-4.2 0-5.8 1.6-1.6 4.2-1.6 5.8,0l53.9,53.9c1.6,1.6 1.6,4.2 0,5.8l-53.9,53.9z"/>
  </g>
</svg>

<?xml version="1.0" encoding="UTF-8" standalone="no"?>
<!DOCTYPE svg PUBLIC "-//W3C//DTD SVG 1.1//EN" "http://www.w3.org/Graphics/SVG/1.1/DTD/svg11.dtd">
<svg width="100%" height="100%" viewBox="0 0 129 129" version="1.1" xmlns="http://www.w3.org/2000/svg" xmlns:xlink="http://www.w3.org/1999/xlink" xml:space="preserve" xmlns:serif="http://www.serif.com/" style="fill-rule:evenodd;clip-rule:evenodd;stroke-linejoin:round;stroke-miterlimit:2;">
    <g>
        <path d="M40.4,121.3C39.6,122.1 38.6,122.5 37.5,122.5C36.4,122.5 35.4,122.1 34.6,121.3C33,119.7 33,117.1 34.6,115.5L85.6,64.5L34.6,13.5C33,11.9 33,9.3 34.6,7.7C36.2,6.1 38.8,6.1 40.4,7.7L94.3,61.6C95.9,63.2 95.9,65.8 94.3,67.4L40.4,121.3Z" style="fill:rgb(40,83,125);fill-rule:nonzero;"/>
    </g>
</svg>
